X:1
T:The Battle of Shiloh
M:6/8
L:1/8
K:C
 G| G2 G ccc| d2 e c2 c| G2 G ccc| G2 G F2 _B| G2 C EEF| G2 A _B2 A/2A/2|\
 G2 C E2 E| D3 C2||
